X: 20873
T: Jolly Seven, The
R: reel
M: 4/4
K: Adorian
|:cAeA cAeA|cAeA dBGB|cAeA cAef|gfge dBGB|
cAeA cAeA|cAeA dBGB|cBAG ABcd|eged cAAB:|
|:c2ec gcec|c2ec dBGB|c2ec gcec|gfge dBGB|
c2 ec gcec|c2 ec dBGB|cBAG ABcd|eged cAAB:|

